X:1
T:Langstrom's Pony
M:6/8
L:1/8
S:Tommy Peoples, Donegal (fiddle)
R:Double Jig
N:As played
D:From a 70's demo tape
Z:Bernie Stocks
K:D
{a}fed cAA|EAA cAA|fed cAA|(3.B.B.G B dcB|
fed cAA|EAA efg|(3.f.g.a f {gf}g2e|dBG Bcd:|
cee dff|cee ecA|cee deg|dBG Bcd|
cee dff|cee efg|(3fga f gfe|dBG Bcd:|
Ace ~a3|e(3cBA e(3cBA|GBd ~g2A|BAG Bcd|
faf gfe|fed ecA|(3fga f {a}gfe|dBG Bcd:|
.A.A.A A2e|cAc ecB|AEA -AB=c|BGB dcB|
~A3 A2e|cAc efg|(3fga f gfe|dBG Bcd:|
